X:3473
T:Cotillion. HSJJ.039
M:2/4
L:1/16
Q:120
S:HSJ Jackson,Wyresdale,Lancs.1823
R:Cotillion
O:England
A:Lancashire
H:1823
Z:Chris Partington.
K:G
GABc d2B2|e4d2B2|c2B2A2G2|AGFEE4|GABc d2B2|e4d2g2|f2d2e2f2|g4g4:|!
|:dcBc d2B2|cBAB c2A2|BAGA B2G2|AGFE F2D2|GABc d2g2|d4d2c2|BAGB AGFA|G4G
4:|!
|:B2B2 c2c2|c2c2d2d2|e2c2g2B2|AGFED4|B2d2d2c2|B2g2g2c2|B4A4G8:|]


